assets/Rolling on the floor laughing/Flat/rolling_on_the_floor_laughing_flat.svg

<svg width="32" height="32" viewBox="0 0 32 32" fill="none" xmlns="http://www.w3.org/2000/svg">
<path d="M25.8971 25.8986C32.4975 19.2982 31.364 11.5681 25.8971 6.10124C20.4302 0.634334 12.7001 -0.499215 6.09965 6.10124C-0.500802 12.7017 0.632747 20.4317 6.09965 25.8986C11.5666 31.3656 19.2966 32.4991 25.8971 25.8986Z" fill="#FFB02E"/>
<path d="M15.0513 5.78439C15.2259 5.26044 15.7922 4.97728 16.3162 5.15193C16.8401 5.32658 17.1233 5.8929 16.9486 6.41684L16.1669 8.76212L18.5121 7.98036C19.0361 7.80571 19.6024 8.08887 19.777 8.61281C19.9517 9.13676 19.6685 9.70308 19.1446 9.87772L14.9019 11.2919C14.5426 11.4117 14.1464 11.3182 13.8786 11.0504C13.6108 10.7825 13.5173 10.3864 13.637 10.027L15.0513 5.78439Z" fill="#402A32"/>
<path d="M5.78439 15.0514C5.26044 15.226 4.97728 15.7923 5.15193 16.3163C5.32658 16.8402 5.8929 17.1234 6.41684 16.9487L8.76212 16.167L7.98036 18.5123C7.80571 19.0362 8.08887 19.6025 8.61281 19.7772C9.13676 19.9518 9.70308 19.6687 9.87772 19.1447L11.2919 14.9021C11.4117 14.5427 11.3182 14.1466 11.0504 13.8787C10.7825 13.6109 10.3864 13.5174 10.027 13.6372L5.78439 15.0514Z" fill="#402A32"/>
<path d="M22.3639 22.364C15.9999 28.728 9.63599 22.364 9.63599 22.364L22.3639 9.63611C22.3639 9.63611 28.7279 16.0001 22.3639 22.364Z" fill="#BB1D80"/>
<path d="M10.6966 22.0104L10.343 21.6568L21.6567 10.3431L22.0103 10.6967C22.4008 11.0872 22.4008 11.7204 22.0103 12.1109L12.1108 22.0104C11.7203 22.4009 11.0871 22.4009 10.6966 22.0104Z" fill="white"/>
<path d="M11.0503 22.364V27.1296C11.0503 28.3707 9.98954 29.3467 8.75277 29.2436C7.65331 29.152 6.80762 28.2329 6.80762 27.1296L6.80762 22.364C6.80762 21.1924 7.75737 20.2427 8.92894 20.2427C10.1005 20.2427 11.0503 21.1924 11.0503 22.364Z" fill="#3F5FFF"/>
<path d="M22.5408 10.8735H27.3064C28.5474 10.8735 29.5234 9.81278 29.4204 8.57601C29.3287 7.47655 28.4096 6.63086 27.3064 6.63086L22.5408 6.63086C21.3692 6.63086 20.4194 7.58061 20.4194 8.75218C20.4194 9.92375 21.3692 10.8735 22.5408 10.8735Z" fill="#3F5FFF"/>
</svg>

<svg xmlns="http://www.w3.org/2000/svg" width="32" height="32" fill="none"><path fill="#FFB02E" d="M25.897 25.899c6.6-6.6 5.467-14.33 0-19.798C20.43.634 12.7-.499 6.1 6.101c-6.6 6.6-5.467 14.33 0 19.798 5.467 5.467 13.197 6.6 19.797 0Z"/><path fill="#402A32" d="M15.051 5.784a1 1 0 1 1 1.898.633l-.782 2.345 2.345-.782a1 1 0 1 1 .633 1.898l-4.243 1.414a1 1 0 0 1-1.265-1.265l1.414-4.243ZM5.784 15.051a1 1 0 1 0 .633 1.898l2.345-.782-.782 2.345a1 1 0 0 0 1.898.633l1.414-4.243a1 1 0 0 0-1.265-1.265l-4.243 1.414Z"/><path fill="#BB1D80" d="M22.364 22.364c-6.364 6.364-12.728 0-12.728 0L22.364 9.636s6.364 6.364 0 12.728Z"/><path fill="#fff" d="m10.697 22.01-.354-.353 11.314-11.314.353.354a1 1 0 0 1 0 1.414l-9.9 9.9a1 1 0 0 1-1.413 0Z"/><path fill="#3F5FFF" d="M11.05 22.364v4.766a2.121 2.121 0 1 1-4.242 0v-4.766a2.121 2.121 0 1 1 4.242 0ZM22.54 10.873h4.766a2.121 2.121 0 0 0 0-4.242h-4.765a2.121 2.121 0 1 0 0 4.242Z"/></svg>
